X: 39400
T: Tap Room, The
R: reel
M: 4/4
K: Cmajor
A,2~A,2 EA,B,A,|A,2 EA, B,A,G,B,|A,2~A,2 EA,B,A,|E2 DF EA, A,2|
A,2~A,2 EA,B,A,|A,2 EA, B,A,G,B,|A,2~A,2 EA,B,A,|E2 {F} DF EA, A,2|
A2 BA eABA|G^FGB d2 BG|A2 BA eABA|G^FGE DA, A,2|
A2 BA eABA|G^FGB d2 BG|AB{d}BA G^FGE|D2 B,D EA, A,G,||

